X:1
T:Lass of Levengstone, The
M:C|
L:1/8
R:Country Dance
B:John Walsh - Caledonian Country Dances (c. 1745, p. 90)
N:Published in several volumes and different editions, 1731-c. 1745)
Z:AK/Fiddler's Companion
K:G
DE|G3A B2g2|(dB)(de) (dB)(AG)|B2A2 A2 (GA)|G/A/B A2 (GE)|
(DE) (GA) (Bd) (AB)|(GF)(GA) (Bc)(dB)|e2E2 (EF)(GA)|B2E2E2:|
|:d2|g3a (ga)(ba)|(gd)(eg) (dB)(AG)|B2A2A2 (GA)|(G/A/)B A2 A3d|
g3a (ga)(ba)|(gd)(eg) (dB)(AB)|G2E2 EFGA|B2E2E2:|]
<pre>
